third_party/noto/noto_2/emoji_u1f3a4.svg

<svg enable-background="new 0 0 128 128" version="1.1" viewBox="0 0 128 128" xmlns="http://www.w3.org/2000/svg"><path d="m77.78 11.93c10.57-10.57 27.72-10.57 38.29 0s10.57 27.72 0 38.29-31.2 14.06-41.77 3.48-7.1-31.2 3.48-41.77z" fill="#9E9E9E"/><path d="m119.43 16.04c-0.02 8.82-3.39 17.63-10.12 24.35-10.66 10.66-26.56 12.89-39.42 6.7 1.03 2.45 2.48 4.7 4.4 6.62 10.57 10.57 31.2 7.09 41.77-3.48 9.3-9.3 10.42-23.67 3.37-34.19z" fill="#757575"/><path d="m84.02 67.06c1.92-1.92-1.69-8.65-8.06-15.02s-13.1-9.98-15.02-8.06c-1.02 1.02-55.72 61.39-56.27 61.94-1.92 1.92 0.42 7.38 5.22 12.18s10.26 7.14 12.18 5.22c0.56-0.54 60.93-55.24 61.95-56.26z" fill="#616161"/><path d="m12.37 115.63 61.93-61.93 8.92 10.3-62.79 56.69c-4.84 0-8.06-5.06-8.06-5.06z" fill="#424242"/><path d="m43.42 83.33c-2.75-2.83-2.34-4.82-1.08-6.05l11.53-11.18c1.27-1.23 3.29-1.2 4.52 0.07l2.61 2.69c1.23 1.27 1.2 3.29-0.07 4.52l-11.53 11.18c-1.26 1.22-3.23 1.6-5.98-1.23z"/><circle cx="56.9" cy="70.17" r="5.21" fill="#9E9E9E"/><path d="m111.54 52.79c1.11 0.73 1.37 0.85 2.61 0.36 1.23-0.49 3.15-2.55 3.42-3.21 0.41-1.03 0.16-1.28-0.79-1.85-3.42-2.06-9.93-6.73-20.03-16.83s-14.77-16.61-16.83-20.03c-0.57-0.95-1.05-1-2.27-0.13-0.75 0.54-1.8 1.63-2.49 2.85-0.65 1.16-0.68 1.4 0.05 2.51 2.76 4.19 7.76 10.59 16.75 19.58 8.99 9 15.39 13.99 19.58 16.75z" fill="#94D1E0"/><path d="m93.64 59.55c-1.49-0.85-8.07-6.27-13.94-12.15-5.57-5.59-10.46-11.63-11.26-13.05-0.58-1.02-2.05-1.01-2.62 0.01l-3.88 6.9c-0.82 1.47-0.89 3.25-0.15 4.76 1.26 2.56 3.29 5.63 8.92 11.26s8.7 7.66 11.26 8.92c1.51 0.74 3.29 0.67 4.76-0.15l6.9-3.88c1.02-0.57 1.03-2.04 0.01-2.62z" fill="#82AEC0"/><path d="m62.31 45.26 4.17-6.18c0.59-0.87 1.85-0.93 2.52-0.12l4.61 5.6c0.5 0.61 0.47 1.5-0.07 2.08l-5.29 5.62c-0.64 0.68-1.72 0.66-2.33-0.04-1.01-1.16-2.5-3.06-3.71-5.37-0.27-0.5-0.22-1.12 0.1-1.59z" fill="#94D1E0"/></svg>

<?xml version="1.0" encoding="utf-8"?>
<!-- Generator: Adobe Illustrator 25.2.3, SVG Export Plug-In . SVG Version: 6.00 Build 0)  -->
<svg version="1.1" id="Layer_2" xmlns="http://www.w3.org/2000/svg" xmlns:xlink="http://www.w3.org/1999/xlink" x="0px" y="0px"
	 viewBox="0 0 128 128" style="enable-background:new 0 0 128 128;" xml:space="preserve">
<g>
	<path style="fill:#9E9E9E;" d="M77.78,11.93c10.57-10.57,27.72-10.57,38.29,0s10.57,27.72,0,38.29S84.87,64.28,74.3,53.7
		S67.2,22.5,77.78,11.93z"/>
	<path style="fill:#757575;" d="M119.43,16.04c-0.02,8.82-3.39,17.63-10.12,24.35c-10.66,10.66-26.56,12.89-39.42,6.7
		c1.03,2.45,2.48,4.7,4.4,6.62c10.57,10.57,31.2,7.09,41.77-3.48C125.36,40.93,126.48,26.56,119.43,16.04z"/>
	<path style="fill:#616161;" d="M84.02,67.06c1.92-1.92-1.69-8.65-8.06-15.02c-6.37-6.37-13.1-9.98-15.02-8.06
		C59.92,45,5.22,105.37,4.67,105.92c-1.92,1.92,0.42,7.38,5.22,12.18s10.26,7.14,12.18,5.22C22.63,122.78,83,68.08,84.02,67.06z"/>
	<path style="fill:#424242;" d="M12.37,115.63L74.3,53.7L83.22,64l-62.79,56.69C15.59,120.69,12.37,115.63,12.37,115.63z"/>
	<path d="M43.42,83.33c-2.75-2.83-2.34-4.82-1.08-6.05L53.87,66.1c1.27-1.23,3.29-1.2,4.52,0.07L61,68.86
		c1.23,1.27,1.2,3.29-0.07,4.52L49.4,84.56C48.14,85.78,46.17,86.16,43.42,83.33z"/>
	<circle style="fill:#9E9E9E;" cx="56.9" cy="70.17" r="5.21"/>
	<path style="fill:#94D1E0;" d="M111.54,52.79c1.11,0.73,1.37,0.85,2.61,0.36c1.23-0.49,3.15-2.55,3.42-3.21
		c0.41-1.03,0.16-1.28-0.79-1.85c-3.42-2.06-9.93-6.73-20.03-16.83c-10.1-10.1-14.77-16.61-16.83-20.03c-0.57-0.95-1.05-1-2.27-0.13
		c-0.75,0.54-1.8,1.63-2.49,2.85c-0.65,1.16-0.68,1.4,0.05,2.51c2.76,4.19,7.76,10.59,16.75,19.58
		C100.95,45.04,107.35,50.03,111.54,52.79z"/>
	<path style="fill:#82AEC0;" d="M93.64,59.55c-1.49-0.85-8.07-6.27-13.94-12.15c-5.57-5.59-10.46-11.63-11.26-13.05
		c-0.58-1.02-2.05-1.01-2.62,0.01l-3.88,6.9c-0.82,1.47-0.89,3.25-0.15,4.76c1.26,2.56,3.29,5.63,8.92,11.26s8.7,7.66,11.26,8.92
		c1.51,0.74,3.29,0.67,4.76-0.15l6.9-3.88C94.65,61.6,94.66,60.13,93.64,59.55z"/>
	<path style="fill:#94D1E0;" d="M62.31,45.26l4.17-6.18c0.59-0.87,1.85-0.93,2.52-0.12l4.61,5.6c0.5,0.61,0.47,1.5-0.07,2.08
		l-5.29,5.62c-0.64,0.68-1.72,0.66-2.33-0.04c-1.01-1.16-2.5-3.06-3.71-5.37C61.94,46.35,61.99,45.73,62.31,45.26z"/>
</g>
</svg>
